X:3
T:McFadden's Reel
T:The Flight of the Earls
C:Trad
D:Filska "Time and Tide"
D:Carlos Nuezs "Brotherhood of Stars", played with the Chieftains
S:http://www.shetland-music.com/mp3down.htm
Z:Steve Wyrick  scots-l 2002-7-31
Z:Bunjie's Dilemma Set, Tune #3
L:1/8
%Q:460
M:C
R:Reel
K:Bm
de|fB (3BBB fa^ga|fB (3BBB efde|fB (3BBB defe|dfaf efde|!
fB (3BBB fa^ga|fB (3BBB efde|fB (3BBB defe|dfaf ef||!
|dc|d3e f3e|d2fd eA (3AAA|dcde fafe|defd edBA|!
d3e f3e|d2fd eA (3AAA|dA (3AAA fAeA|defd e2||
